src/assets/icons/lock.svg

<?xml version="1.0" standalone="no"?><!DOCTYPE svg PUBLIC "-//W3C//DTD SVG 1.1//EN" "http://www.w3.org/Graphics/SVG/1.1/DTD/svg11.dtd"><svg t="1537089286386" class="icon" style="" viewBox="0 0 1024 1024" version="1.1" xmlns="http://www.w3.org/2000/svg" p-id="3435" xmlns:xlink="http://www.w3.org/1999/xlink" width="200" height="200"><defs><style type="text/css"></style></defs><path d="M680.75 427.625v-84.375a168.75 168.75 0 1 0-337.5 0v84.375h337.5zM230.75 483.875v337.303125A28.096875 28.096875 0 0 0 258.65 849.5h506.7c15.103125 0 27.9-12.65625 27.9-28.321875V484.071875 483.875H230.75z m-56.25-14.0625V455.75a28.125 28.125 0 0 1 28.125-28.125h84.375v-84.375a225 225 0 1 1 450 0v84.375h84.375c15.525 0 28.125 12.4875 28.125 28.125v393.91875A56.25 56.25 0 0 1 793.109375 905.75H230.890625A56.25 56.25 0 0 1 174.5 849.66875V469.8125zM540.125 624.5v112.78125c0 15.35625-12.4875 27.84375-28.125 27.84375a28.125 28.125 0 0 1-28.125-27.84375V624.5h-28.40625a27.928125 27.928125 0 0 1-27.84375-28.125 28.125 28.125 0 0 1 27.84375-28.125h113.0625c15.35625 0 27.84375 12.4875 27.84375 28.125a28.125 28.125 0 0 1-27.84375 28.125H540.125z" p-id="3436"></path></svg>

<svg class="icon" viewBox="0 0 1024 1024" xmlns="http://www.w3.org/2000/svg" width="200" height="200"><defs><style/></defs><path d="M680.75 427.625V343.25a168.75 168.75 0 1 0-337.5 0v84.375h337.5zm-450 56.25v337.303a28.097 28.097 0 0 0 27.9 28.322h506.7c15.103 0 27.9-12.656 27.9-28.322V483.875h-562.5zm-56.25-14.063V455.75a28.125 28.125 0 0 1 28.125-28.125H287V343.25a225 225 0 1 1 450 0v84.375h84.375c15.525 0 28.125 12.488 28.125 28.125v393.919a56.25 56.25 0 0 1-56.39 56.081H230.89a56.25 56.25 0 0 1-56.39-56.081V469.813zM540.125 624.5v112.781c0 15.357-12.488 27.844-28.125 27.844a28.125 28.125 0 0 1-28.125-27.844V624.5h-28.406a27.928 27.928 0 0 1-27.844-28.125 28.125 28.125 0 0 1 27.844-28.125H568.53c15.357 0 27.844 12.488 27.844 28.125A28.125 28.125 0 0 1 568.53 624.5h-28.406z"/></svg>
